picto/dogs-prohibited-framed.svg

<svg class="color-immutable" width="30" height="30" viewBox="0 0 30 30" fill="none" xmlns="http://www.w3.org/2000/svg"><path d="M29.9999 0H0V29.9999H29.9999V0Z" fill="#2D327D"/><path d="M25.4999 2.99999C26.3249 2.99999 26.9999 3.67499 26.9999 4.49999V25.4999C26.9999 26.3249 26.3249 26.9999 25.4999 26.9999H4.49999C3.67499 26.9999 2.99999 26.3249 2.99999 25.4999V4.49999C2.99999 3.67499 3.67499 2.99999 4.49999 2.99999H25.4999ZM25.4999 2.62499H4.49999C3.46612 2.62499 2.62499 3.46612 2.62499 4.49999V25.4999C2.62499 26.5338 3.46612 27.3749 4.49999 27.3749H25.4999C26.5338 27.3749 27.3749 26.5338 27.3749 25.4999V4.49999C27.3749 3.46612 26.5338 2.62499 25.4999 2.62499Z" fill="white"/><path d="M10.3951 20.5462C10.1644 20.8164 9.88634 21.0438 9.57322 21.2176L11.284 23.6633C11.4517 23.9027 11.7817 23.9609 12.0213 23.7934C12.2605 23.6257 12.3188 23.2956 12.1512 23.0562L10.3951 20.5462Z" fill="white"/><path d="M16.0755 19.379L14.1604 23.1374C14.0275 23.3979 14.1312 23.7165 14.3915 23.849C14.6518 23.9819 14.9707 23.8784 15.1033 23.618L17.2635 19.3791H16.0755V19.379Z" fill="white"/><path d="M19.4828 16.4838L19.9051 15.7546L17.4442 13.2806L16.9087 13.8012C16.7431 13.9623 16.4185 14.094 16.1875 14.094H15.1712L6.70834 5.63129L5.64769 6.69186L13.0499 14.094H8.17278C7.35446 14.094 6.69109 13.4307 6.69109 12.6125C6.69109 11.7941 7.35446 11.1306 8.17278 11.1306C8.38938 11.1306 8.56496 10.9549 8.56496 10.7383C8.56496 10.5216 8.38938 10.3459 8.17278 10.3459C6.92096 10.3459 5.90629 11.3605 5.90629 12.6125C5.90629 13.8642 6.92096 14.8789 8.17278 14.8789V18.6393L6.61954 20.4564V23.4461C6.61954 23.7386 6.85639 23.9754 7.14859 23.9754C7.44094 23.9754 7.67794 23.7386 7.67794 23.4461L7.67741 21.2434C7.67711 21.0785 7.81204 20.9435 7.97711 20.9435C7.97711 20.9435 7.98483 20.9435 8.14526 20.9435C9.38343 20.9435 10.3886 19.9542 10.4184 18.7233H17.6792L17.9627 19.0068L17.9621 23.4293C17.9608 23.7294 18.1968 23.9738 18.4889 23.975C18.7811 23.9762 19.0188 23.7338 19.0199 23.4332L19.0208 20.0649L22.99 24.0341L24.0505 22.9732L19.4828 18.4056V16.4838H19.4828Z" fill="white"/><path d="M23.8278 11.4273H22.7756L22.501 11.0557C22.501 11.0557 22.4539 10.992 22.3964 10.9138C22.3388 10.836 22.2137 10.7722 22.1186 10.7722C22.1186 10.7722 22.1186 10.7722 21.8733 10.7722H20.2651C20.1324 10.7722 19.9436 10.8504 19.8452 10.9462C19.7466 11.0418 18.0075 12.7328 18.0075 12.7328L20.3126 15.0503L20.9341 13.9766C21.0003 13.8624 21.1626 13.769 21.2944 13.769H23.1713L24.0677 12.8727V11.6673C24.0677 11.5353 23.9597 11.4273 23.8278 11.4273Z" fill="white"/><path d="M6.70834 5.63129L5.64769 6.69186L22.9899 24.0341L24.0504 22.9732L6.70834 5.63129Z" fill="#EB0000"/></svg>

<svg class="color-immutable" width="30" height="30" viewBox="0 0 30 30" fill="none" xmlns="http://www.w3.org/2000/svg"><path d="M30 0H0v30h30V0Z" fill="#2D327D"/><path d="M25.5 3c.825 0 1.5.675 1.5 1.5v21c0 .825-.675 1.5-1.5 1.5h-21c-.825 0-1.5-.675-1.5-1.5v-21C3 3.675 3.675 3 4.5 3h21Zm0-.375h-21A1.877 1.877 0 0 0 2.625 4.5v21c0 1.034.841 1.875 1.875 1.875h21a1.877 1.877 0 0 0 1.875-1.875v-21A1.877 1.877 0 0 0 25.5 2.625Z" fill="#fff"/><path d="M10.395 20.546c-.23.27-.509.498-.822.672l1.711 2.445a.53.53 0 0 0 .867-.607l-1.756-2.51ZM16.076 19.379l-1.916 3.758a.529.529 0 1 0 .943.481l2.16-4.239h-1.188Z" fill="#fff"/><path d="m19.483 16.484.422-.73-2.46-2.473-.536.52c-.166.161-.49.293-.721.293H15.17L6.708 5.631l-1.06 1.06 7.402 7.403H8.173a1.482 1.482 0 1 1 0-2.963.392.392 0 0 0 0-.785 2.266 2.266 0 1 0 0 4.533v3.76L6.62 20.456v2.99a.53.53 0 1 0 1.058 0v-2.203a.3.3 0 0 1 .3-.3h.167c1.238 0 2.244-.989 2.273-2.22h7.261l.284.284v4.422c-.002.3.234.545.526.546a.536.536 0 0 0 .53-.542l.002-3.368 3.969 3.97 1.06-1.062-4.567-4.567v-1.922ZM23.828 11.427h-1.052l-.275-.371-.105-.142a.392.392 0 0 0-.277-.142h-1.854a.697.697 0 0 0-.42.174l-1.837 1.787 2.305 2.317.621-1.073a.462.462 0 0 1 .36-.208h1.877l.897-.896v-1.206a.24.24 0 0 0-.24-.24Z" fill="#fff"/><path d="m6.708 5.631-1.06 1.06L22.99 24.035l1.06-1.06L6.708 5.63Z" fill="#EB0000"/></svg>
